lib/brands/icons/figma.svg

<svg xmlns="http://www.w3.org/2000/svg" fill="none" aria-hidden="true" viewBox="0 0 48 48"><g id="figma-Icon"><g id="figma_logo" clip-path="url(#clip0_94_17531)"><path id="Vector" fill="#1ABCFE" d="M24 24C24 22.4087 24.6321 20.8826 25.7574 19.7574C26.8826 18.6321 28.4087 18 30 18C31.5913 18 33.1174 18.6321 34.2426 19.7574C35.3679 20.8826 36 22.4087 36 24C36 25.5913 35.3679 27.1174 34.2426 28.2426C33.1174 29.3679 31.5913 30 30 30C28.4087 30 26.8826 29.3679 25.7574 28.2426C24.6321 27.1174 24 25.5913 24 24V24Z"/><path id="Vector_2" fill="#0ACF83" d="M12 36C12 34.4087 12.6321 32.8826 13.7574 31.7574C14.8826 30.6321 16.4087 30 18 30H24V36C24 37.5913 23.3679 39.1174 22.2426 40.2426C21.1174 41.3679 19.5913 42 18 42C16.4087 42 14.8826 41.3679 13.7574 40.2426C12.6321 39.1174 12 37.5913 12 36V36Z"/><path id="Vector_3" fill="#FF7262" d="M24 6V18H30C31.5913 18 33.1174 17.3679 34.2426 16.2426C35.3679 15.1174 36 13.5913 36 12C36 10.4087 35.3679 8.88258 34.2426 7.75736C33.1174 6.63214 31.5913 6 30 6H24Z"/><path id="Vector_4" fill="#F24E1E" d="M12 12C12 13.5913 12.6321 15.1174 13.7574 16.2426C14.8826 17.3679 16.4087 18 18 18H24V6H18C16.4087 6 14.8826 6.63214 13.7574 7.75736C12.6321 8.88258 12 10.4087 12 12V12Z"/><path id="Vector_5" fill="#A259FF" d="M12 24C12 25.5913 12.6321 27.1174 13.7574 28.2426C14.8826 29.3679 16.4087 30 18 30H24V18H18C16.4087 18 14.8826 18.6321 13.7574 19.7574C12.6321 20.8826 12 22.4087 12 24V24Z"/></g></g><defs><clipPath id="clip0_94_17531"><rect width="24" height="36" fill="white" transform="translate(12 6)"/></clipPath></defs></svg>

<svg xmlns="http://www.w3.org/2000/svg" fill="none" aria-hidden="true" viewBox="0 0 48 48"><g clip-path="url(#a)"><path fill="#1ABCFE" d="M24 24a6 6 0 1 1 12 0 6 6 0 0 1-12 0Z"/><path fill="#0ACF83" d="M12 36a6 6 0 0 1 6-6h6v6a6 6 0 1 1-12 0Z"/><path fill="#FF7262" d="M24 6v12h6a6 6 0 1 0 0-12h-6Z"/><path fill="#F24E1E" d="M12 12a6 6 0 0 0 6 6h6V6h-6a6 6 0 0 0-6 6Z"/><path fill="#A259FF" d="M12 24a6 6 0 0 0 6 6h6V18h-6a6 6 0 0 0-6 6Z"/></g><defs><clipPath id="a"><path fill="#fff" d="M0 0h24v36H0z" transform="translate(12 6)"/></clipPath></defs></svg>
